!!!OTL: Esternowe, S. 60
!!!id: I0514
**kern
*clefG2
*k[]
*C:
{8dd
8cc
4a
4g
=1
4cc
16c
8a
8g
8e
16c
4.g
8e
=2
4c
16c
8g
8a
8b
16c
4cc
=3yy
8g
8b
=4
8a
8g
8e
8c
4.d
16cccc
16cccc}
=5yy
{8c
8e
4g
8g
8e
=6
8g
8a
4cc
4dd
8ee
16cc
16dd
=7
4ee
8ee
8dd
4cc
4g
=8
8a
8g
4e
4g
8a
16cc
16c
=9yy
16dddd
16cccc}
{8c
8e
4g
8g
8e
=10
8g
8a
4cc
4dd
8cc
8dd
=11
4ee
8ee
8dd
4cc
4g
=12
8a
8g
4e
4g
8a
8cc
=13yy
16eeee
16cccc}
{8dd
8cc
4a
4g
=14
4cc
16c
8a
8g
8e
16c
4.g
8e
=15
4c
16c
8g
8a
8b
16c
4cc
=16yy
8g
8b}
=17
{8a
8g
8e
8c
4.d
8c
=18
4c}
==
*-
!!!minrhy: 16
!!!meters: 4/4 ]  ZZ[5
!!!cut: Esternowe, S. 60
!!!reg: Irland
!!!trd: O BOYLE, Sean: 25 Irish Folksongs, Dublin 1976
!!!rhy1: X_X_X__X__  X__(X_X_X_)X__.X_  X__(X_X_X_)X__X_X_  X_X_X_X_X__.X_  X__
!!!rhy2: X_X_X__X_X_  X_X_X__X__X_XX  X__X_X_X__X__  X_X_X__X__X_X_  X__
!!!key: I0514  16  C 4/4 ]  ZZ[5
!!!mod: SECHSTONSKALA DUR ?]  AMBITUS[10
!!!kad: 1+1+171
!!!akz: 6+151+1621_55+2+3+165+1_55+2+3+165+1_6+151+1_621_
!!!fot: 'a__b__bv_av_c__
!!!for: 'a__b__c__aw_d__
!!!fok: 'Sd_~a_~a_Vd_\__
!! PHRAS[VORWIEGEND AUFTAKTIG]
!!!fkt: Liebeslied
!! IRISCHE VKL.
!! PR[18] 2K[12] 2G[16] 3K[4] 3G[3] 4A[3] 4Ü[0] 5A[0] 6K[1] 6G[0]
!! 7K[0] 7G[0] 8A[1] MEHR[0] SI[42] ABS[67] SR[28] SP[13]
!! ST[16] 2k[9] 2g[16] 3k[7] 3g[0] 4d[4] 4ü[0] 5d[3] 6k[0] 6g[0]
!! 7k[0] 7g[0] 8d[0] mehr[0] si[40] dm[+2] sr[25] sp[15]
!! 1F[19] 2F[24] 3F[19] 4F[7] LF[0] 2P[1] 3P[29] 4P[0] TRI[0] DF[6] AB[68]
!! TF[0] U3K[0] U3[1] U4[3] U4Ü[0] U5[10] U6K[0] U6[1] U7K[4] U7[0]
!! N1[22] N2K[0] N2[18] N3K[13] N3[3] N4[12] N4Ü[0] N5[12] N6K[0] N6[0]
!!!n7k: 0] N7[0] O1[0] O2K[0] O2[0] O3K[0] O3[0] HÖ[0
